X:13
T:Christ Church Bells
M:C
L:1/8
Q:1/2=100
C:"in Oxon - Oxford"
B:James Winder Ms, Lancashire, 1835-41
O:England
A:Wyresdale,Lancashire
Z:vmp.Chris Partington, Aug 2004
K:C clef=treble
[|:"C"c3cc2c2|c2c2c2e2|"F"d2c2B2A2|"G"G6G2|
   "C"E2G2C2G2|"F"c2F2" G"G2gf|"F"e2a2 "G"def2|"C"e3dc4:|]
[|:"C"e3ee2e2|e3ee2g2|"F"f2(ef)d2c2|
   "C"d2G2d3d|"F"e2d2 "G"d2(cB)|"(F)"c2A2 "G"d2B2|"C"c3de4:|]
[|:"C"gg gg g2 gg|g2ggg2G2|"F"A3Bc2d2|"G"B6AB|
   "C"c2B2c2B2|"F"c2d2 "G"B2AG|"F"A2F2 "G"G3G|"C"C6:|]

